X:1
T:The Little Pilgrims
T:The Little Pilgrims
T:“The Silver Chime,” 1862
T:C. C. Carpenter, before 1863
T:Public Domain Courtesy of the Cyber Hymnal™
C:“The Silver Chime,” 1862
Z:Public Domain
Z:Courtesy of the Cyber Hymnal™
%%score ( 1 2 ) 3
L:1/8
Q:1/4=85
M:6/8
K:Bb
V:1 treble 
V:2 treble 
V:3 bass 
V:1
 ([B,D]>[CE]) | ([DF][EG])[DF] [DB]2 [DA] | [EA]3 [EG][FA][FB] | [Gc]2 [Gc] [Ad]2 [Ac] | %4
w: 1.~The *|way * to Heav’n is|nar- row, And its|bless- èd en- trance|
w: 2.~The *|sun- * beams of the|morn- ing Make the|nar- row path so|
w: 3.~They *|pass * o’er rug- ged|mount- ains, But they|climb them with a|
w: 4.~They *|do * not great- ly|trem- ble When the|sha- dows night fore-|
w: 5.~They *|know * it leads to|Hea- ven, With its|bright and o- pen|
 [Bd]4 [B,D][CE] | ([DF][EG])[DF] [DB]2 [DA] | [EA]3 [EG] (AB) | [Ec]2 [Ge] [Fd]2 [Ec] | [DB]3 z |] %9
w: strait; But how|safe * the lit- tle|pil- grims Who *|get with- in the|gate!|
w: fair; And these|ear- * ly lit- tle|pil- grims Find *|dew- y bless- ings|there.|
w: song; For these|ear- * ly lit- tle|pil- grims Have *|san- dals new and|strong.|
w: tell; For these|ear- * ly lit- tle|pil- grims Have *|tried the path so|well.|
w: gates, Where for|hap- * py lit- tle|pil- grims A *|Sav- ior’s wel- come|waits.|
V:2
 x2 | x6 | x6 | x6 | x6 | x6 | x4 F2 | x6 | x4 |] %9
V:3
 B,,2 | B,,2 B,, B,,2 B,, | E,3 E,E,D, | C,2 C, F,2 F, | B,,4 B,,B,, | B,,2 B,, B,,2 B,, | %6
 E,3 E, (E,D,) | C,2 C, F,2 F, | B,,3 z |] %9

